StripePaymentSheet/StripePaymentSheet/Resources/StripePaymentSheet.xcassets/PaymentSheet/icon_x_standalone.imageset/cancel.svg

<svg fill="none" height="16" viewBox="0 0 16 16" width="16" xmlns="http://www.w3.org/2000/svg"><path clip-rule="evenodd" d="m8.00061 6.58533 4.59199-4.59197c.3909-.39089 1.0246-.39089 1.4155 0s.3909 1.02464 0 1.41552l-4.59132 4.59132 4.59132 4.5913c.3909.3909.3909 1.0246 0 1.4155s-1.0246.3909-1.4155 0l-4.59199-4.59194-4.59197 4.59194c-.39089.3909-1.02464.3909-1.41552 0-.39089-.3909-.39089-1.0246 0-1.4155l4.59131-4.5913-4.59131-4.59132c-.39089-.39088-.39089-1.02463 0-1.41552.39088-.39089 1.02463-.39089 1.41552 0z" fill="#000" fill-rule="evenodd"/></svg>

<svg width="16" height="16" viewBox="0 0 16 16" fill="none" xmlns="http://www.w3.org/2000/svg">
<path fill-rule="evenodd" clip-rule="evenodd" d="M8.00061 6.58533L12.5926 1.99336C12.9835 1.60247 13.6172 1.60247 14.0081 1.99336C14.399 2.38425 14.399 3.018 14.0081 3.40888L9.41678 8.0002L14.0081 12.5915C14.399 12.9824 14.399 13.6161 14.0081 14.007C13.6172 14.3979 12.9835 14.3979 12.5926 14.007L8.00061 9.41506L3.40864 14.007C3.01775 14.3979 2.384 14.3979 1.99312 14.007C1.60223 13.6161 1.60223 12.9824 1.99312 12.5915L6.58443 8.0002L1.99312 3.40888C1.60223 3.018 1.60223 2.38425 1.99312 1.99336C2.384 1.60247 3.01775 1.60247 3.40864 1.99336L8.00061 6.58533Z" fill="black"/>
</svg>
